X: 1
T:Nickelsdorfer Schottisch
S:collection Elisabeth und Christoph Huspeka
Z:abc transcription Simon Wascher
N:please mail errors to: simon.wascher@chello.at
M:2/4
L:1/16
K:G
G2G2 B2B2|A2AAF4|A2A2 c2c2|B4G4|
G2G2 B2B2|ccc2c4|F2F2 FEDF|G2G2G4:|
|:d2B2 d2B2|d2c2A4|F2FF E2F2|G2G2D4|
d2B2 d2B2|c2c2F4|F2F2 FEDF|G2G2G4:|
